Sources/FrostedUI/Resources/Icons.xcassets/cube20.imageset/cube-20.svg

<svg width="20" height="20" viewBox="0 0 20 20" fill="none" xmlns="http://www.w3.org/2000/svg" data-fui-icon="true">
  <g clip-path="url(#clip0_1078_132)">
    <path
      d="M10 0C10.5859 0 11.16 0.166418 11.6553 0.479492L17.7373 4.32422C18.5232 4.82095 19 5.68556 19 6.61523V13.3848C19 14.3144 18.5232 15.179 17.7373 15.6758L11.6553 19.5205C11.16 19.8336 10.5859 20 10 20C9.41405 20 8.84002 19.8336 8.34473 19.5205L2.2627 15.6758C1.47685 15.179 1 14.3144 1 13.3848V6.61523C1 5.68556 1.47685 4.82095 2.2627 4.32422L8.34473 0.479492C8.84002 0.166418 9.41405 0 10 0ZM10 1.5C9.69785 1.5 9.40191 1.58567 9.14648 1.74707L3.06348 5.5918C2.71259 5.81366 2.5 6.20008 2.5 6.61523V13.3848C2.5 13.7999 2.71259 14.1863 3.06348 14.4082L9.14648 18.2529C9.40191 18.4143 9.69785 18.5 10 18.5C10.3021 18.5 10.5981 18.4143 10.8535 18.2529L16.9365 14.4082C17.2874 14.1863 17.5 13.7999 17.5 13.3848V6.61523C17.5 6.20008 17.2874 5.81366 16.9365 5.5918L10.8535 1.74707C10.5981 1.58567 10.3021 1.5 10 1.5ZM4.53613 6.8291C4.73344 6.4652 5.18862 6.33029 5.55273 6.52734L9.99707 8.93164L14.4414 6.52734C14.8055 6.33029 15.2607 6.46521 15.458 6.8291C15.6552 7.19337 15.5195 7.64854 15.1553 7.8457L10.7441 10.2334V15.4668C10.7441 15.8809 10.4081 16.2165 9.99414 16.2168C9.57993 16.2168 9.24414 15.881 9.24414 15.4668V10.2305L4.83887 7.8457C4.47461 7.64854 4.33899 7.19337 4.53613 6.8291Z"
      fill="currentColor"
    />
  </g>
  <defs>
    <clipPath id="clip0_1078_132"><path fill="currentColor" d="M0 0H20V20H0z" /></clipPath>
  </defs>
</svg>

<svg xmlns="http://www.w3.org/2000/svg" width="20" height="20" fill="none" data-fui-icon="true" viewBox="0 0 20 20"><g clip-path="url(#a)"><path fill="currentColor" d="M10 0c.586 0 1.16.166 1.655.48l6.082 3.844A2.71 2.71 0 0 1 19 6.615v6.77a2.71 2.71 0 0 1-1.263 2.29l-6.082 3.845a3.1 3.1 0 0 1-3.31 0l-6.082-3.844A2.71 2.71 0 0 1 1 13.385v-6.77c0-.93.477-1.794 1.263-2.29L8.345.478A3.1 3.1 0 0 1 10 0m0 1.5c-.302 0-.598.086-.854.247L3.063 5.592A1.21 1.21 0 0 0 2.5 6.615v6.77c0 .415.213.801.563 1.023l6.083 3.845a1.6 1.6 0 0 0 1.707 0l6.083-3.845a1.21 1.21 0 0 0 .564-1.023v-6.77a1.21 1.21 0 0 0-.564-1.023l-6.082-3.845A1.6 1.6 0 0 0 10 1.5M4.536 6.83a.75.75 0 0 1 1.017-.303l4.444 2.405 4.444-2.405a.75.75 0 1 1 .714 1.319l-4.41 2.387v5.234a.75.75 0 0 1-1.5 0V10.23L4.838 7.846a.75.75 0 0 1-.303-1.017"/></g><defs><clipPath id="a"><path fill="currentColor" d="M0 0h20v20H0z"/></clipPath></defs></svg>
